X:5830
Q: 1/4=100
T: Most jövök a hortobágyi pusztáról
M:4/4
L:1/8
K:G
GAA<G cde>c | A G3 G2 z2 |
d<ee<d g<ab<g | f d3 d2 z |
d<ee<d g<ab<g | e>dc<B A2 z2|
GAA<G cde>c | A G3 G2 z2 |
